!!!!SEGMENT: pl-cz--i-8--005_danka--missa-es-et-resurrexit.krn
!!!cenid: 18xx:725
!!!COM: Danka
!!!COM-rismID: pe30085946
!!!CDT: <1790->1810
!!!CNT:
!!!OPR: Missa Es
!!!OTL: Et resurrexit
!!!OMV: 005
!!!PDT: 1800
!!!AGN: Sacred; Mass
!!!SMS-siglum: PL-CZ
!!!SMS-shelfmark: I-8
!!!SMS-shelfwork: 001-005 M
!!!SMS-variant:
!!!SMS-altvar:
!!!NIFC-rismSourceID: 300000103
!!!NIFC-rismChildID: 300000103
!!!NIFC-islandoraID: pl-cz:31970
!!!URL-pdf-islandora: https://repozytorium.nifc.pl/islandora/object/pl-cz%3A31970/datastream/PDF/view
!!!URL-scan: https://polish.musicsources.pl/pl/lokalizacje/galeria/rekopisy/6749/1 @EN{Scan on Polish Music Sources Website} @PL{Skany w portalu Dziedzictwo Muzyki Polskiej w otwartym dostępie}
!!!ONB-nifc: UWAGA: części Mszy: Kyrie, Gloria, Credo, Et incarnatus, Et resurrexit, Sanctus, Benedictus, Agnus Dei, Dona nobis
!!!AIN: 1 alto 2 clars 3 empty 1 fagot 1 flt 1 organ 1 tenor 2 violn 1 vox
!!!key:
**kern	**fba	**kern	**kern	**dynam	**kern	**text	**kern	**text	**kern	**text	**kern	**text	**kern	**kern	**kern	**kern	**kern	**kern
*part13	*	*part12	*part11	*	*part10	*part10	*part9	*part9	*part8	*part8	*part7	*part7	*part6	*part5	*part4	*part3	*part2	*part1
*	*	*group4	*group4	*	*group3	*	*group3	*	*group3	*	*group3	*	*group2	*group2	*group1	*group1	*group1	*group1
*staff13	*	*staff12	*staff11	*	*staff10	*staff10	*staff9	*staff9	*staff8	*staff8	*staff7	*staff7	*staff6	*staff5	*staff4	*staff3	*staff2	*staff1
*Iorgan	*	*Ivioln	*Ivioln	*	*Iempty	*	*Itenor	*	*Ialto	*	*Ivox	*	*Iempty	*Iempty	*Ifagot	*Iclars	*Iclars	*Iflt
*I"Organo	*	*I"Violino IIdo	*I"Violino Primo	*	*I"Baſso.	*	*I"Tenore	*	*I"Alto	*	*I"Canto.	*	*I"Cornu Secondo in Es.	*I"Cornu Primo in Es.	*I"Fagotto Obligato.	*I"Clarinetto. IIdo in Es.	*I"Clarinetto Primo. in Dis	*I"Flauto Solo Benedictus
*I'org	*	*I'vl II	*I'vl I	*	*I'B	*	*I'T	*	*I'A	*	*I'C	*	*I'cor II	*I'cor I	*I'fg	*I'cl II	*I'cl I	*I'fl
*clefF4	*	*clefG2	*clefG2	*	*clefF4	*	*clefC4	*	*clefC3	*	*clefC1	*	*clefG2	*clefG2	*clefF4	*clefG2	*clefG2	*clefG2
*	*	*	*	*	*	*	*	*	*	*	*	*	*ITrd5c9	*ITrd5c9	*	*ITrd1c2	*ITrd1c2	*
*k[e-b-a-]	*	*k[b-e-a-]	*k[b-e-a-]	*	*k[e-a-b-]	*	*k[a-b-e-]	*	*k[a-b-e-]	*	*k[b-e-a-]	*	*k[b-e-a-]	*k[b-e-a-]	*k[e-b-a-]	*k[b-e-a-]	*k[b-e-a-]	*k[b-e-a-]
*E-:	*	*E-:	*E-:	*	*E-:	*	*E-:	*	*E-:	*	*E-:	*	*E-:	*E-:	*E-:	*E-:	*E-:	*E-:
*M2/2	*	*M2/2	*M2/2	*	*M2/2	*	*M2/2	*	*M2/2	*	*M2/2	*	*M2/2	*M2/2	*M2/2	*M2/2	*M2/2	*M2/2
*met(c|)	*	*met(c|)	*met(c|)	*	*met(c|)	*	*met(c|)	*	*met(c|)	*	*met(c|)	*	*met(c|)	*met(c|)	*met(c|)	*met(c|)	*met(c|)	*met(c|)
=1	=1	=1	=1	=1	=1	=1	=1	=1	=1	=1	=1	=1	=1	=1	=1	=1	=1	=1
*	*	*	*2\right	*	*2\right	*	*2\right	*	*2\right	*	*2\right	*	*	*	*	*	*2\right	*
!	!	!	!LO:TX:a:t=P:problem=dopiski czerwonym atramentem (przepisano)	!	!	!	!	!	!	!	!	!	!	!	!	!LO:TX:a:t=P:problem=dopiski czerwonym atramentem (przepisano)	!LO:TX:a:t=P:problem=dopiski czerwonym atramentem (przepisano)	!
!LO:TX:a:t=P:problem=all\right or middle	!	!LO:TX:a:t=P:problem=all\right or middle	!LO:TX:a:t=P:problem=all\right or middle	!	!LO:TX:a:t=P:problem=all\right or middle	!	!LO:TX:a:t=P:problem=all\right or middle	!	!LO:TX:a:t=P:problem=all\right or middle	!	!LO:TX:a:t=P:problem=all\right or middle	!	!	!	!LO:TX:a:t=P:problem=all\right or middle	!LO:TX:a:t=P:problem=all\right or middle	!LO:TX:a:t=P:problem=all\right or middle	!LO:TX:a:t=P:problem=all\right or middle
!	!	!	!	!	!	!	!	!	!	!	!	!	!	!	!	!LO:TX:a:t=P:UWAGA:problem=w źródle błędny wybór transpozycji instrumentu - użyto klarnetu W STROJU B (graficznie tak samo jak w źródle, por. wątki #79 i #95)	!LO:TX:a:t=P:UWAGA:problem=w źródle błędny wybór transpozycji instrumentu - użyto klarnetu W STROJU B (graficznie tak samo jak w źródle, por. wątki #79 i #95)	!
!LO:TX:a:t=P:problem=bemole E- BB- A-	!	!	!	!	!LO:TX:a:t=P:problem=bemole E- A- BB-	!	!	!	!LO:TX:a:t=P:problem=bemole A- d-(pomyłkowo) e-	!	!	!	!	!	!LO:TX:a:t=P:problem=kolejność znaków E- BB- A-	!	!	!
!LO:TX:a:t=Allabr&colon;	!	!LO:TX:a:B:t=Andte	!LO:TX:a:B:t=Allabr Andte	!	!LO:TX:a:t=Andante	!	!LO:TX:a:t=Andante	!	!LO:TX:a:t=Andante	!	!LO:TX:a:t=Andante	!	!LO:TX:a:B:t=Et Resurrexit&colon; ut Credo. Tacet	!LO:TX:a:B:t=Et Resurrexit ut Credo. Tacet	!LO:TX:a:B:t=Andte	!LO:TX:a:B:t=Andante	!LO:TX:a:B:t=Andte	!LO:TX:a:t=Tacet:problem=brak karty głosu, poza tym tylko w części Benedictus
!LO:TX:b:B:t=Et resurrexit	!	!LO:TX:b:B:t=Et resurrexit	!LO:TX:b:B:t=Et resurrexit	!	!LO:TX:b:t=P:problem="E" przed kluczem	!	!LO:TX:b:t=P:problem="E" przed kluczem	!	!LO:TX:b:t=P:problem="E" przed kluczem	!	!LO:TX:b:t=P:problem="E" przed kluczem	!	!	!	!LO:TX:b:B:t=Et resurrexit	!LO:TX:b:B:t=Et Resurrexit	!LO:TX:b:B:t=Et Resurrexit	!
4E-\	.	2g/	2ee-\	.	2E-\	Et re-	2B-\	Et re-	2g\	Et	2ee-\	Et	1ryy	1ryy	4E-\	2g/	2ee-\	1ryy
4E-\	.	.	.	.	.	.	.	.	.	.	.	.	.	.	4E-\	.	.	.
4A-\	6	8b-/L	8gg\L	.	4A-\	-ſur-	4c\	-ſur-	8b-\L	re-	8gg\L	re-	.	.	4A-\	8b-/L	8gg\L	.
.	.	8a-/	8ff\	.	.	.	.	.	8a-\	.	8ff\J	.	.	.	.	8a-/	8ff\	.
4B-\	.	8g/	8ee-\	.	4B-\	-re-	4B-\	-re-	8g\	-ſur-	8ee-\L	-ſur-	.	.	4B-\	8g/	8ee-\	.
.	.	8f/J	8dd\J	.	.	.	.	.	8f\J	-re-	8dd\J	-re-	.	.	.	8f/J	8dd\J	.
=2	=2	=2	=2	=2	=2	=2	=2	=2	=2	=2	=2	=2	=2	=2	=2	=2	=2	=2
*2\right	*	*	*	*	*	*	*	*	*	*	*	*	*	*	*2\right	*	*	*
!	!	!	!	!	!	!	!	!	!	!	!LO:SIC:v:l:s=xit	!	!	!	!	!	!	!
2E-\	.	4g/	4ee-\	.	2E-\	-xit	2B-\	-xit	2g\	-xit	2ee-\	-xi	1ryy	1ryy	2E-\	2g/	2ee-\	1ryy
*	*	*Xtuplet	*Xtuplet	*	*	*	*	*	*	*	*	*	*	*	*	*	*	*
.	.	12g/L	12b-\L	.	.	.	.	.	.	.	.	.	.	.	.	.	.	.
.	.	12a-/	12cc\	.	.	.	.	.	.	.	.	.	.	.	.	.	.	.
.	.	12g/J	12b-\J	.	.	.	.	.	.	.	.	.	.	.	.	.	.	.
4r	.	4g/	4ee-\	.	4r	.	4r	.	4r	.	4r	.	.	.	4r	4r	4r	.
4E-\	.	12b-/L	12gg\L	.	4E-\	ter-	4e-\	ter-	4b-\	ter-	4gg\	ter-	.	.	4E-\	4b-\	4gg\	.
.	.	12cc/	12aa-\	.	.	.	.	.	.	.	.	.	.	.	.	.	.	.
.	.	12b-/J	12gg\J	.	.	.	.	.	.	.	.	.	.	.	.	.	.	.
=3	=3	=3	=3	=3	=3	=3	=3	=3	=3	=3	=3	=3	=3	=3	=3	=3	=3	=3
4E-\	6 4	4cc/	4aa-\	.	4E-\	-ti-	4e-\	-ti-	(4cc\	-ti-	(4aa-\	-ti-	1ryy	1ryy	4E-\	4cc\	4aa-\	1ryy
4E-\	5 3	4b-/	4gg\	.	4E-\	.	4e-\	.	4b-\)	.	4gg\)	.	.	.	4E-\	4b-\	4gg\	.
4A-\	8 6	4a-/	4ff\	.	4A-\	-a	4c\	-a	(4a-\	-a	(4ff\	-a	.	.	4A-\	4a-\	4ff\	.
4An\	4 5	4g/	4ee-\	.	4An\	.	4B-\	.	4g\)	.	4ee-\)	.	.	.	4An\	4g\	4ee-\	.
!	!	!	!	!	!	!	!	!	!LO:LB:g=original	!	!LO:LB:g=original	!	!	!	!	!	!	!
=4	=4	=4	=4	=4	=4	=4	=4	=4	=4	=4	=4	=4	=4	=4	=4	=4	=4	=4
*	*	*	*	*	*	*	*	*	*	*	*	*	*	*	*	*Xtuplet	*	*
!	!	!	!	!	!	!	!	!	!LO:TUP:a:problem=klamra łukowa	!	!LO:TUP:a:problem=klamra łukowa	!	!	!	!	!	!LO:TUP:a:problem=klamra łukowa	!
4B-\	7	12f/L	12dd\L	.	4B-\	Di-	4B-\	di-	12f\L	Di-	12dd\L	Di-	1ryy	1ryy	4B-\	12f/L	12dd\L	1ryy
.	.	12g/	12ee-\	.	.	.	.	.	12g\	.	12ee-\	.	.	.	.	12g/	12ee-\	.
.	.	12a-/J	12ff\J	.	.	.	.	.	12a-\J	.	12ff\J	.	.	.	.	12a-/J	12ff\J	.
4E-\	.	4g/	4ee-\	.	4E-\	-e	4B-\	-e	4g\	-e	4ee-\	-e	.	.	4E-\	4g/	4ee-\	.
2r	.	12f/L	12g/L	.	2r	.	2r	.	2r	.	2r	.	.	.	2r	2r	2r	.
.	.	12g/	12a-/	.	.	.	.	.	.	.	.	.	.	.	.	.	.	.
.	.	12f/J	12g/J	.	.	.	.	.	.	.	.	.	.	.	.	.	.	.
.	.	12g/L	12b-/L	.	.	.	.	.	.	.	.	.	.	.	.	.	.	.
.	.	12a-/	12cc/	.	.	.	.	.	.	.	.	.	.	.	.	.	.	.
.	.	12g/J	12b-/J	.	.	.	.	.	.	.	.	.	.	.	.	.	.	.
!	!	!LO:LB:g=original	!LO:LB:g=original	!	!	!	!LO:LB:g=original	!	!	!	!	!	!	!	!	!	!	!
=5	=5	=5	=5	=5	=5	=5	=5	=5	=5	=5	=5	=5	=5	=5	=5	=5	=5	=5
4E-\	.	2g/	2ee-\	.	2E-\	se-	2B-\	se-	2g\	se-	2ee-\	se-	1ryy	1ryy	4E-\	2g/	2ee-\	1ryy
4E-\	.	.	.	.	.	.	.	.	.	.	.	.	.	.	4E-\	.	.	.
!	!	!	!	!	!LO:LB:g=original	!	!	!	!	!	!	!	!	!	!	!	!	!
4A-\	6	8b-/L	8gg\L	.	4A-\	.	(4c\	-cun-	8b-\L	-cun-	8gg\L	-cun-	.	.	4A-\	8b-/L	8gg\L	.
.	.	8a-/	8ff\	.	.	.	.	.	8a-\	.	8ff\	.	.	.	.	8a-/	8ff\	.
4B-\	.	8g/	8ee-\	.	4B-\	-cun-	4B-\)	.	8g\	.	8ee-\	.	.	.	4B-\	8g/	8ee-\	.
.	.	8f/J	8dd\J	.	.	.	.	.	8f\J	.	8dd\J	.	.	.	.	8f/J	8dd\J	.
!	!	!	!	!	!	!	!	!	!	!	!	!	!	!	!LO:LB:g=original	!LO:LB:g=original	!	!
=6	=6	=6	=6	=6	=6	=6	=6	=6	=6	=6	=6	=6	=6	=6	=6	=6	=6	=6
2E-\	.	4g/	4ee-\	.	2E-\	-dum	2B-\	-dum	2g\	-dum	2ee-\	-dum	1ryy	1ryy	2E-\	2g/	2ee-\	1ryy
.	.	12g/L	12b-\L	.	.	.	.	.	.	.	.	.	.	.	.	.	.	.
.	.	12a-/	12cc\	.	.	.	.	.	.	.	.	.	.	.	.	.	.	.
.	.	12g/J	12b-\J	.	.	.	.	.	.	.	.	.	.	.	.	.	.	.
4r	.	4g/	4ee-\	.	4r	.	4r	.	4r	.	4r	.	.	.	4r	4r	4r	.
4E-\	.	12b-/L	12gg\L	.	4E-\	scri-	4e-\	scri-	4b-\	scri-	4gg\	scri-	.	.	4E-\	4b-\	4gg\	.
.	.	12cc/	12aa-\	.	.	.	.	.	.	.	.	.	.	.	.	.	.	.
.	.	12b-/J	12gg\J	.	.	.	.	.	.	.	.	.	.	.	.	.	.	.
!LO:LB:g=original	!	!	!	!	!	!	!	!	!	!	!	!	!	!	!	!	!LO:LB:g=original	!
=7	=7	=7	=7	=7	=7	=7	=7	=7	=7	=7	=7	=7	=7	=7	=7	=7	=7	=7
4E-\	.	12cc/L	12aa-\L	.	4E-\	.	4e-\	.	4cc\	.	4aa-\	.	1ryy	1ryy	4E-\	4cc\	4aa-\	1ryy
.	.	12dd/	12bb-\	.	.	.	.	.	.	.	.	.	.	.	.	.	.	.
.	.	12cc/J	12aa-\J	.	.	.	.	.	.	.	.	.	.	.	.	.	.	.
4E-\	.	12b-/L	12gg\L	.	4E-\	.	4e-\	.	4b-\	.	4gg\	.	.	.	4E-\	4b-\	4gg\	.
.	.	12cc/	12aa-\	.	.	.	.	.	.	.	.	.	.	.	.	.	.	.
.	.	12b-/J	12gg\J	.	.	.	.	.	.	.	.	.	.	.	.	.	.	.
4A-\	8 6	12a-/L	12ff\L	.	4A-\	.	4c\	.	4a-\	.	4ff\	.	.	.	4A-\	4a-\	4ff\	.
.	.	12b-/	12gg\	.	.	.	.	.	.	.	.	.	.	.	.	.	.	.
.	.	12a-/J	12ff\J	.	.	.	.	.	.	.	.	.	.	.	.	.	.	.
4An\	7 5	12g/L	12ee-\L	.	8An\	.	8c\	.	8g\	.	8ee-\	.	.	.	4An\	4g\	4ee-\	.
.	.	12a-/	12ff\	.	.	.	.	.	.	.	.	.	.	.	.	.	.	.
.	.	.	.	.	8A\	.	8c\	.	8g\	.	8ee-\	.	.	.	.	.	.	.
.	.	12g/J	12ee-\J	.	.	.	.	.	.	.	.	.	.	.	.	.	.	.
!	!	!	!	!	!	!	!	!	!LO:LB:g=original	!	!LO:LB:g=original	!	!	!	!	!	!	!
=8	=8	=8	=8	=8	=8	=8	=8	=8	=8	=8	=8	=8	=8	=8	=8	=8	=8	=8
4B-\	6 4	4g/	4ee-\	.	4B-\	-ptu-	4B-\	-ptu-	4g\	-ptu-	4dd\	-ptu-	1ryy	1ryy	4B-\	4f/	4ee-\	1ryy
4BB-/	5 3	4f/	4dd\	.	4BB-/	-ras	4B-\	-ras	4g\	-ras	4b-\	-ras	.	.	4BB-/	4g/	4dd\	.
2r	.	2r	2r	.	2r	.	2r	.	2r	.	2r	.	.	.	2r	2r	2r	.
=9	=9	=9	=9	=9	=9	=9	=9	=9	=9	=9	=9	=9	=9	=9	=9	=9	=9	=9
4B-\	.	8f/	8dd\L	.	1B-	et	1B-	et	1f	et	1dd	et	1ryy	1ryy	4B-\	00r	00r	1ryy
.	.	4f/	8ff\	.	.	.	.	.	.	.	.	.	.	.	.	.	.	.
4B-\	.	.	8bb-\	.	.	.	.	.	.	.	.	.	.	.	4B-\	.	.	.
.	.	4f/	8ff\J	.	.	.	.	.	.	.	.	.	.	.	.	.	.	.
4B-\	.	.	8dd\L	.	.	.	.	.	.	.	.	.	.	.	4B-\	.	.	.
.	.	4f/	8ff\	.	.	.	.	.	.	.	.	.	.	.	.	.	.	.
4B-\	.	.	8dd\	.	.	.	.	.	.	.	.	.	.	.	4B-\	.	.	.
.	.	8f/	8ff\J	.	.	.	.	.	.	.	.	.	.	.	.	.	.	.
!	!	!LO:LB:g=original	!LO:LB:g=original	!	!	!	!	!	!	!	!	!	!	!	!	!	!	!
=10	=10	=10	=10	=10	=10	=10	=10	=10	=10	=10	=10	=10	=10	=10	=10	=10	=10	=10
4An\	6 5	8f/	8ee-\L	.	2An\	as-	2c\	as-	2f\	as-	2ee-\	as-	1ryy	1ryy	4An\	.	.	1ryy
.	.	4f/	8aan\	.	.	.	.	.	.	.	.	.	.	.	.	.	.	.
4A\	.	.	8ccc\	.	.	.	.	.	.	.	.	.	.	.	4A\	.	.	.
.	.	4f/	8aa\J	.	.	.	.	.	.	.	.	.	.	.	.	.	.	.
4A\	.	.	8ee-\L	.	2A\	.	2c\	.	2f\	.	2ee-\	.	.	.	4A\	.	.	.
.	.	4f/	8ff\	.	.	.	.	.	.	.	.	.	.	.	.	.	.	.
4A\	.	.	8ee-\	.	.	.	.	.	.	.	.	.	.	.	4A\	.	.	.
.	.	8f/	8ff\J	.	.	.	.	.	.	.	.	.	.	.	.	.	.	.
!	!	!	!	!	!LO:LB:g=original	!	!LO:PB:g=original	!	!	!	!	!	!	!	!	!	!	!
=11	=11	=11	=11	=11	=11	=11	=11	=11	=11	=11	=11	=11	=11	=11	=11	=11	=11	=11
4B-\	.	8f/	8dd\L	.	2B-\	-cen-	2B-\	-cen-	2f\	-cen-	2dd\	-cen-	1ryy	1ryy	4B-\	.	.	1ryy
.	.	4f/	8ff\	.	.	.	.	.	.	.	.	.	.	.	.	.	.	.
4B-\	.	.	8bb-\	.	.	.	.	.	.	.	.	.	.	.	4B-\	.	.	.
.	.	4f/	8ff\J	.	.	.	.	.	.	.	.	.	.	.	.	.	.	.
4B-\	.	.	8dd\L	.	2B-\	-dit	2B-\	-dit	2f\	-dit	2dd\	-dit	.	.	4B-\	.	.	.
.	.	4f/	8ff\	.	.	.	.	.	.	.	.	.	.	.	.	.	.	.
4B-\	.	.	8dd\	.	.	.	.	.	.	.	.	.	.	.	4B-\	.	.	.
.	.	8f/	8ff\J	.	.	.	.	.	.	.	.	.	.	.	.	.	.	.
=12	=12	=12	=12	=12	=12	=12	=12	=12	=12	=12	=12	=12	=12	=12	=12	=12	=12	=12
4An\	6 5	8f/	8ee-\L	.	2An\	in-	2c\	in-	2f\	in	2ee-\	in	1ryy	1ryy	4An\	.	.	1ryy
.	.	4f/	8aan\	.	.	.	.	.	.	.	.	.	.	.	.	.	.	.
4A\	.	.	8ccc\	.	.	.	.	.	.	.	.	.	.	.	4A\	.	.	.
.	.	4f/	8aa\J	.	.	.	.	.	.	.	.	.	.	.	.	.	.	.
4A\	.	.	8ee-\L	.	2A\	.	2c\	.	2f\	.	2ee-\	.	.	.	4A\	.	.	.
.	.	4f/	8ff\	.	.	.	.	.	.	.	.	.	.	.	.	.	.	.
4A\	.	.	8ee-\	.	.	.	.	.	.	.	.	.	.	.	4A\	.	.	.
.	.	8f/	8ff\J	.	.	.	.	.	.	.	.	.	.	.	.	.	.	.
!	!	!	!	!	!	!	!	!	!	!	!	!	!	!	!LO:LB:g=original	!	!	!
=13	=13	=13	=13	=13	=13	=13	=13	=13	=13	=13	=13	=13	=13	=13	=13	=13	=13	=13
4B-\	.	8f/L	8dd\L	.	2B-\	-coe-	2B-\	-coe-	2f\	coe-	2dd\	coe-	1ryy	1ryy	4B-\	2f/	2dd\	1ryy
.	.	8d/	8b-\	.	.	.	.	.	.	.	.	.	.	.	.	.	.	.
4B-\	.	8b-/	8ff\	.	.	.	.	.	.	.	.	.	.	.	4B-\	.	.	.
.	.	8d/J	8dd\J	.	.	.	.	.	.	.	.	.	.	.	.	.	.	.
8BB-/L	.	12dd\L	12bb-\L	.	8BB-/L	.	4d\	.	4f\	.	4ff\	.	.	.	8BB-/L	4f/	4ff\	.
.	.	12ff\	12aa-\	.	.	.	.	.	.	.	.	.	.	.	.	.	.	.
8C/	.	.	.	.	8C/J	.	.	.	.	.	.	.	.	.	8C/	.	.	.
.	.	12ee-\J	12gg\J	.	.	.	.	.	.	.	.	.	.	.	.	.	.	.
8D/	.	12dd\L	12ff\L	.	8D/L	.	4B-\	.	4f\	.	4dd\	.	.	.	8D/	4f/	4dd\	.
.	.	12cc\	12ee-\	.	.	.	.	.	.	.	.	.	.	.	.	.	.	.
8E-/J	.	.	.	.	8E-/J	.	.	.	.	.	.	.	.	.	8E-/J	.	.	.
.	.	12b-\J	12dd\J	.	.	.	.	.	.	.	.	.	.	.	.	.	.	.
!LO:LB:g=original	!	!	!LO:LB:g=original	!	!	!	!	!	!LO:LB:g=original	!	!	!	!	!	!	!	!	!
=14	=14	=14	=14	=14	=14	=14	=14	=14	=14	=14	=14	=14	=14	=14	=14	=14	=14	=14
4F\	6 4	4b-/	4dd\	.	4F\	.	4B-\	.	4f\	.	(4dd\	-lum	1ryy	1ryy	4F\	4f/	4dd\	1ryy
4FF/	5 3	4an/	4cc\	.	4FF/	-lum	4An\	-lum	4f\	-lum	4cc\)	.	.	.	4FF/	4f/	4cc\	.
2r	.	4r	4r	.	2r	.	2r	.	2r	.	2r	.	.	.	2r	2r	2r	.
*	*	*tuplet	*	*	*	*	*	*	*	*	*	*	*	*	*	*	*	*
!	!	!LO:TUP:b:problem=klamra łukowa	!	!LO:DY:t=p&colon;	!	!	!	!	!	!	!	!	!	!	!	!	!	!
.	.	12a/L	12f/L	p	.	.	.	.	.	.	.	.	.	.	.	.	.	.
.	.	12b-/	12g/	.	.	.	.	.	.	.	.	.	.	.	.	.	.	.
.	.	12a/J	12f/J	.	.	.	.	.	.	.	.	.	.	.	.	.	.	.
*	*	*Xtuplet	*	*	*	*	*	*	*	*	*	*	*	*	*	*	*	*
!	!	!LO:LB:g=original	!	!	!	!	!	!	!	!	!LO:LB:g=original	!	!	!	!	!	!	!
=15	=15	=15	=15	=15	=15	=15	=15	=15	=15	=15	=15	=15	=15	=15	=15	=15	=15	=15
2r	.	4d/	4b-\	.	2r	.	2r	.	2r	.	2r	.	1ryy	1ryy	2r	2r	2r	1ryy
.	.	12d/L	12b-\L	.	.	.	.	.	.	.	.	.	.	.	.	.	.	.
.	.	12e-/	12cc\	.	.	.	.	.	.	.	.	.	.	.	.	.	.	.
.	.	12d/J	12b-\J	.	.	.	.	.	.	.	.	.	.	.	.	.	.	.
4r	.	4f/	4dd\	.	4r	.	4r	.	4r	.	4r	.	.	.	4r	4r	4r	.
!	!	!	!	!LO:DY:t=f&colon;	!	!	!	!	!	!	!	!	!	!	!	!	!	!
4BB-/	.	8g/L	8ee-\L	f	4B-\	se-	4F/	se-	4e-\	se-	4dd\	se-	.	.	4BB-/	4e-/	4dd\	.
.	.	8f/J	8dd\J	.	.	.	.	.	.	.	.	.	.	.	.	.	.	.
=16	=16	=16	=16	=16	=16	=16	=16	=16	=16	=16	=16	=16	=16	=16	=16	=16	=16	=16
4F\	7 n	4e-/	4cc\	.	4F\	.	4F/	.	4e-\	.	4cc\	.	1ryy	1ryy	4F\	4e-/	4cc\	1ryy
4BB-/	.	4d/	4b-\	.	4BB-/	-det	4F/	-det	4d\	-det	4b-\	-det	.	.	4BB-/	4d/	4b-\	.
2r	.	4r	4r	.	2r	.	2r	.	2r	.	2r	.	.	.	2r	2r	2r	.
!	!	!	!	!LO:DY:t=p&colon;	!	!	!	!	!	!	!	!	!	!	!	!	!	!
.	.	12d/L	12b-\L	p	.	.	.	.	.	.	.	.	.	.	.	.	.	.
.	.	12e-/	12cc\	.	.	.	.	.	.	.	.	.	.	.	.	.	.	.
.	.	12d/J	12b-\J	.	.	.	.	.	.	.	.	.	.	.	.	.	.	.
=17	=17	=17	=17	=17	=17	=17	=17	=17	=17	=17	=17	=17	=17	=17	=17	=17	=17	=17
2r	.	4f/	4dd\	.	2r	.	2r	.	2r	.	2r	.	1ryy	1ryy	2r	2r	2r	1ryy
.	.	12f/L	12dd\L	.	.	.	.	.	.	.	.	.	.	.	.	.	.	.
.	.	12g/	12ee-\	.	.	.	.	.	.	.	.	.	.	.	.	.	.	.
.	.	12f/J	12dd\J	.	.	.	.	.	.	.	.	.	.	.	.	.	.	.
!	!	!	!	!LO:DY:t=for.	!	!	!	!	!	!	!	!	!	!	!	!	!	!
4r	.	4dd\	4ff\	f	4r	.	4r	.	4r	.	4r	.	.	.	4r	4r	4r	.
4B-\	.	4dd\	8bb-\L	.	4B-\	ad	4d\	ad	4f\	ad	4ff\	ad	.	.	4B-\	4f/	4ff\	.
.	.	.	8ff\J	.	.	.	.	.	.	.	.	.	.	.	.	.	.	.
!	!	!	!	!	!LO:LB:g=original	!	!LO:LB:g=original	!	!	!	!	!	!	!	!	!LO:LB:g=original	!	!
=18	=18	=18	=18	=18	=18	=18	=18	=18	=18	=18	=18	=18	=18	=18	=18	=18	=18	=18
!	!	!	!	!	!LO:TX:a:t=f	!	!	!	!	!	!	!	!	!	!	!	!	!
4F\	7 n	4cc\	4ee-\	.	4F\	dex-	4c\	dex-	4f\	dex-	4ee-\	dex-	1ryy	1ryy	4F\	4f/	4ee-\	1ryy
!	!	!	!	!	!LO:SIC:v:l:s=teram	!	!LO:SIC:v:l:s=teram	!	!LO:SIC:v:l:s=teram	!	!LO:SIC:v:l:s=teram	!	!	!	!	!	!	!
4BB-/	.	4b-\	4dd\	.	4BB-/	-tram	4B-\	-tram	4f\	-tram	4dd\	-tram	.	.	4BB-/	4f/	4dd\	.
2r	.	2r	2r	.	2r	.	2r	.	2r	.	2r	.	.	.	2r	2r	2r	.
!	!	!	!LO:LB:g=original	!	!	!	!	!	!LO:PB:g=original	!	!LO:PB:g=original	!	!	!	!	!	!LO:LB:g=original	!
=19	=19	=19	=19	=19	=19	=19	=19	=19	=19	=19	=19	=19	=19	=19	=19	=19	=19	=19
*	*	*	*	*	*	*	*	*	*	*	*	*	*	*	*tremolo	*	*	*
*tremolo	*	*	*	*	*	*	*	*	*	*	*	*	*	*	*	*	*	*
8F\L	6 4	8dd\	8bb-\	.	1F	Ju-	2c\	Ju-	1dd	Ju-	1bb-	Ju-	1ryy	1ryy	8F\L	1dd	1bb-	1ryy
8F\	.	4dd\	4bb-\	.	.	.	.	.	.	.	.	.	.	.	8F\	.	.	.
8F\	.	.	.	.	.	.	.	.	.	.	.	.	.	.	8F\	.	.	.
8F\J	.	4dd\	4bb-\	.	.	.	.	.	.	.	.	.	.	.	8F\J	.	.	.
8F\L	.	.	.	.	.	.	2f\	.	.	.	.	.	.	.	8F\L	.	.	.
8F\	.	4dd\	4bb-\	.	.	.	.	.	.	.	.	.	.	.	8F\	.	.	.
8F\	.	.	.	.	.	.	.	.	.	.	.	.	.	.	8F\	.	.	.
8F\J	.	8dd\	8bb-\	.	.	.	.	.	.	.	.	.	.	.	8F\J	.	.	.
*Xtremolo	*	*	*	*	*	*	*	*	*	*	*	*	*	*	*	*	*	*
!	!	!LO:PB:g=original	!	!	!	!	!	!	!	!	!	!	!	!	!	!	!	!
=20	=20	=20	=20	=20	=20	=20	=20	=20	=20	=20	=20	=20	=20	=20	=20	=20	=20	=20
*	*	*	*	*	*	*	*	*	*	*	*	*	*	*	*	*2\right	*	*
8E-\L	6_ 4_ 2_	8cc\	8aan\	.	2E-\	-di-	2f\	-di-	2cc\	-di-	2aan\	-di-	1ryy	1ryy	8E-L	2cc\	2aa\	1ryy
8F\	.	4cc\	4aa\	.	.	.	.	.	.	.	.	.	.	.	8F\	.	.	.
8E-\	.	.	.	.	.	.	.	.	.	.	.	.	.	.	8E-\	.	.	.
8F\J	.	4cc\	4aa\	.	.	.	.	.	.	.	.	.	.	.	8F\	.	.	.
8E-\L	.	.	.	.	2E-\	-ca-	2f\	-ca-	2cc\	-ca-	2aa\	-ca-	.	.	8E-\	2cc\	2aa\	.
8F\	.	4cc\	4aa\	.	.	.	.	.	.	.	.	.	.	.	8F\	.	.	.
8E-\	.	.	.	.	.	.	.	.	.	.	.	.	.	.	8E-\	.	.	.
8F\J	X X X	8cc\	8aa\	.	.	.	.	.	.	.	.	.	.	.	8F\J	.	.	.
!	!	!	!	!	!	!	!	!	!	!	!	!	!	!	!LO:LB:g=original	!	!	!
=21	=21	=21	=21	=21	=21	=21	=21	=21	=21	=21	=21	=21	=21	=21	=21	=21	=21	=21
4D\	.	4b-\	8bb-\L	.	4D\	-re	4f\	-re	4b-\	-re	8bb-\L	-re	1ryy	1ryy	4D\	4b-\	8bb-\L	1ryy
.	.	.	8ff\	.	.	.	.	.	.	.	8ff\J	.	.	.	.	.	8ff\J	.
4E-\	.	8dd\L	8gg\	.	4E-\	vi-	4r	.	4cc\	.	8gg\L	.	.	.	4E-\	4cc\	8gg\L	.
.	.	8cc\J	8ee-\J	.	.	.	.	.	.	.	8ee-\J	.	.	.	.	.	8ee-\J	.
4F\	6 4	4b-\	4dd\	.	4F\	.	4r	.	4b-\	.	4dd\	vi-	.	.	4F\	4b-\	4dd\	.
4FF/	5 3	4a#X\	4cc\	.	4FF/	.	4e-\	vi-	4an\	vi-	4cc\	.	.	.	4FF/	4a\	4cc\	.
!LO:LB:g=original	!	!	!	!	!	!	!	!	!	!	!	!	!	!	!	!	!	!
=22	=22	=22	=22	=22	=22	=22	=22	=22	=22	=22	=22	=22	=22	=22	=22	=22	=22	=22
4BB-/|	.	4b-/	4b-/	.	2BB-/	-vos	2d\	-vos	2b-\	-vos	2b-\	-vos	1ryy	1ryy	4BB-/	2b-\	2b-\	1ryy
4D/|	.	4d/	4d/	.	.	.	.	.	.	.	.	.	.	.	4D\	.	.	.
!	!	!	!	!	!	!	!	!	!	!	!	!	!	!	!	!	!LO:TX:a:t=Solo	!
4E-/|	.	4e-/	4e-/	.	2r	.	2r	.	2r	.	2r	.	.	.	4E-\	2r	2r	.
!	!	!	!	!LO:DY:t=pi&colon;	!	!	!	!	!	!	!	!	!	!	!	!	!	!
4F/|	.	4f/	4f/	p	.	.	.	.	.	.	.	.	.	.	4F\	.	.	.
=23	=23	=23	=23	=23	=23	=23	=23	=23	=23	=23	=23	=23	=23	=23	=23	=23	=23	=23
2BB-/	.	4B-/	4B-/	.	00r	.	00r	.	1dd	cu-	1ff	cu-	1ryy	1ryy	2BB-/	1dd	1ff	1ryy
.	.	4B-/	4B-/	.	.	.	.	.	.	.	.	.	.	.	.	.	.	.
2r	.	4B-/	4B-/	.	.	.	.	.	.	.	.	.	.	.	2r	.	.	.
.	.	4B-/	4B-/	.	.	.	.	.	.	.	.	.	.	.	.	.	.	.
=24	=24	=24	=24	=24	=24	=24	=24	=24	=24	=24	=24	=24	=24	=24	=24	=24	=24	=24
00r	.	4f/	4f/	.	.	.	.	.	1cc	.	1ee-	.	1ryy	1ryy	00r	1cc	1ee-	1ryy
.	.	4f/	4f/	.	.	.	.	.	.	.	.	.	.	.	.	.	.	.
.	.	4f/	4f/	.	.	.	.	.	.	.	.	.	.	.	.	.	.	.
.	.	4f/	4f/	.	.	.	.	.	.	.	.	.	.	.	.	.	.	.
!	!	!	!LO:LB:g=original	!	!	!	!	!	!	!	!LO:LB:g=original	!	!	!	!	!	!	!
=25	=25	=25	=25	=25	=25	=25	=25	=25	=25	=25	=25	=25	=25	=25	=25	=25	=25	=25
.	.	4B-/	4B-/	.	.	.	.	.	2b-\	-ius	2dd\	-jus	1ryy	1ryy	.	2b-\	2dd\	1ryy
.	.	4B-/	4B-/	.	.	.	.	.	.	.	.	.	.	.	.	.	.	.
.	.	4B-/	4B-/	.	.	.	.	.	4r	.	4r	.	.	.	.	4r	4r	.
.	.	4B-/	4B-/	.	.	.	.	.	4b-\	Re-	4dd\	Re-	.	.	.	4b-\	4dd\	.
!	!	!LO:LB:g=original	!	!	!	!	!	!	!LO:LB:g=original	!	!	!	!	!	!	!	!	!
=26	=26	=26	=26	=26	=26	=26	=26	=26	=26	=26	=26	=26	=26	=26	=26	=26	=26	=26
.	.	4f/	4f/	.	.	.	.	.	4an\	-gni	4cc\	-gni	1ryy	1ryy	.	4a\	4cc\	1ryy
.	.	4f/	4f/	.	.	.	.	.	4b-\	non	4dd\	non	.	.	.	4b-\	4dd\	.
.	.	4f/	4f/	.	.	.	.	.	4cc\	e-	4ee-\	e-	.	.	.	4cc\	4ee-\	.
.	.	4f/	4f/	.	.	.	.	.	8b-\L	.	8dd\L	.	.	.	.	8b-\L	8dd\L	.
.	.	.	.	.	.	.	.	.	8a\J	.	8cc\J	.	.	.	.	8a\J	8cc\J	.
!	!	!	!	!	!	!	!	!	!	!	!	!	!	!	!	!LO:PB:g=original	!LO:LB:g=original	!
=27	=27	=27	=27	=27	=27	=27	=27	=27	=27	=27	=27	=27	=27	=27	=27	=27	=27	=27
.	.	4B-/	4B-/	.	1d	non	1f	non	2b-\	-rit	2dd\	-rit	1ryy	1ryy	.	1dd	1ff	1ryy
.	.	4B-/	4B-/	.	.	.	.	.	.	.	.	.	.	.	.	.	.	.
.	.	4B-/	4B-/	.	.	.	.	.	2r	.	2r	.	.	.	.	.	.	.
.	.	4B-/	4B-/	.	.	.	.	.	.	.	.	.	.	.	.	.	.	.
=28	=28	=28	=28	=28	=28	=28	=28	=28	=28	=28	=28	=28	=28	=28	=28	=28	=28	=28
00r	.	4f/	4f/	.	1c	e-	1e-	e-	00r	.	00r	.	1ryy	1ryy	00r	1cc	1ee-	1ryy
.	.	4f/	4f/	.	.	.	.	.	.	.	.	.	.	.	.	.	.	.
.	.	4f/	4f/	.	.	.	.	.	.	.	.	.	.	.	.	.	.	.
.	.	4f/	4f/	.	.	.	.	.	.	.	.	.	.	.	.	.	.	.
!	!	!	!	!	!	!	!LO:LB:g=original	!	!	!	!	!	!	!	!	!	!	!
=29	=29	=29	=29	=29	=29	=29	=29	=29	=29	=29	=29	=29	=29	=29	=29	=29	=29	=29
.	.	4B-/	4B-/	.	2B-\	-rit	2d\	-rit	.	.	.	.	1ryy	1ryy	.	2b-\	2dd\	1ryy
.	.	4B-/	4B-/	.	.	.	.	.	.	.	.	.	.	.	.	.	.	.
.	.	4d/	4d/	.	4r	.	4r	.	.	.	.	.	.	.	.	4r	4r	.
.	.	4B-/	4B-/	.	4B-\	non	4d\	non	.	.	.	.	.	.	.	4b-\	4dd\	.
!	!	!	!	!	!LO:LB:g=original	!	!	!	!	!	!	!	!	!	!	!	!	!
=30	=30	=30	=30	=30	=30	=30	=30	=30	=30	=30	=30	=30	=30	=30	=30	=30	=30	=30
.	.	4f/	4f/	.	(4An\	e-	4c\	e-	.	.	.	.	1ryy	1ryy	.	4a\	4cc\	1ryy
.	.	4f/	4f/	.	4B-\)	-rit	4d\	-rit	.	.	.	.	.	.	.	4b-\	4dd\	.
.	.	4e-/	4e-/	.	(4c\	fi-	4e-\	fi-	.	.	.	.	.	.	.	4cc\	4ee-\	.
.	.	4en/	4en/	.	4d\)	.	4d\	.	.	.	.	.	.	.	.	4b-\	4dd\	.
=31	=31	=31	=31	=31	=31	=31	=31	=31	=31	=31	=31	=31	=31	=31	=31	=31	=31	=31
.	.	4f/	4f/	.	4B-\	.	4d\	.	.	.	.	.	1ryy	1ryy	.	4b-\	4dd\	1ryy
.	.	4f/	4f/	.	4An\	-nis	4c\	-nis	.	.	.	.	.	.	.	4a\	4cc\	.
!	!	!	!	!LO:DY:t=for.	!	!	!	!	!	!	!	!	!	!	!	!	!	!
.	.	4r	4r	f	2r	.	2r	.	.	.	.	.	.	.	.	2r	2r	.
.	.	12ff\L	12ff\L	.	.	.	.	.	.	.	.	.	.	.	.	.	.	.
.	.	12gg\	12gg\	.	.	.	.	.	.	.	.	.	.	.	.	.	.	.
!LO:TX:b:t=Verte Cito	!	!	!	!	!	!	!	!	!	!	!	!	!	!	!	!	!	!
.	.	12ff\J	12ff\J	.	.	.	.	.	.	.	.	.	.	.	.	.	.	.
!LO:PB:g=original	!	!LO:LB:g=original	!	!	!	!	!	!	!	!	!	!	!	!	!	!	!	!
=32	=32	=32	=32	=32	=32	=32	=32	=32	=32	=32	=32	=32	=32	=32	=32	=32	=32	=32
*	*	*2\right	*	*	*	*	*	*	*	*	*	*	*	*	*	*	*	*
!	!	!	!	!	!LO:TX:b:t=P:problem=pod nutą znaczek przypominający fermatę z dwoma kropkami, prawdopodobnie rozdzielenie dwóch sylab	!	!	!	!	!	!	!	!	!	!	!	!	!
4B-\	.	2dd\	2bb-\	.	2BB-/	et in	2B-\	et	2f\	et	2dd\	et	1ryy	1ryy	4B-\	00r	00r	1ryy
4BB-/	.	.	.	.	.	.	.	.	.	.	.	.	.	.	4BB-/	.	.	.
!	!	!	!LO:LB:g=original	!	!	!	!	!	!	!	!	!	!	!	!	!	!	!
4E-\	6	8ff\L	8ddd\L	.	4E-\	spi-	8d\L	in	(4g\	in	(8ff\L	in	.	.	4E-\	.	.	.
.	.	8ee-\	8ccc\	.	.	.	8c\	.	.	.	8ee-\)	.	.	.	.	.	.	.
4F\	n	8dd\	8bb-\	.	4F\	-ri-	8B-\	spi-	4f\)	Spi-	(8dd\	spi-	.	.	4F\	.	.	.
.	.	8cc\J	8aan\J	.	.	.	8An\J	-ri-	.	.	8cc\J)	-ri-	.	.	.	.	.	.
!	!	!	!	!	!	!	!	!	!	!	!LO:LB:g=original	!	!	!	!	!	!	!
=33	=33	=33	=33	=33	=33	=33	=33	=33	=33	=33	=33	=33	=33	=33	=33	=33	=33	=33
2BB-/	.	4dd\	4bb-\	.	2BB-/	-tum	2B-\	-tum	2f\	-ritum	2dd\	-tum	1ryy	1ryy	2BB-/	.	.	1ryy
.	.	12dd\L	12ff\L	.	.	.	.	.	.	.	.	.	.	.	.	.	.	.
.	.	12ee-\	12gg\	.	.	.	.	.	.	.	.	.	.	.	.	.	.	.
.	.	12dd\J	12ff\J	.	.	.	.	.	.	.	.	.	.	.	.	.	.	.
4r	.	4b-\	4dd\	.	4r	.	4r	.	4r	.	4r	.	.	.	4r	.	.	.
4B-\	.	12dd\L	12ff\L	.	4B-\	san-	4d\	san-	4b-\	san-	4ff\	san-	.	.	4B-\	.	.	.
.	.	12ee-\	12gg\	.	.	.	.	.	.	.	.	.	.	.	.	.	.	.
.	.	12dd\J	12ff\J	.	.	.	.	.	.	.	.	.	.	.	.	.	.	.
!	!	!	!	!	!	!	!LO:LB:g=original	!	!	!	!	!	!	!	!	!	!	!
=34	=34	=34	=34	=34	=34	=34	=34	=34	=34	=34	=34	=34	=34	=34	=34	=34	=34	=34
4B-\	6 4	8ee-\L	8gg\L	.	2BB-/	-ctum	4e-\	.	2b-\	-ctum	(4gg\	.	1ryy	1ryy	4B-\	.	.	1ryy
.	.	8ff\	8aa-\	.	.	.	.	.	.	.	.	.	.	.	.	.	.	.
4BB-/	5 3	8dd\	8ff\	.	.	.	4d\	.	.	.	4ff\)	.	.	.	4BB-/	.	.	.
.	.	8ff\J	8gg\J	.	.	.	.	.	.	.	.	.	.	.	.	.	.	.
!	!	!	!	!	!	!	!	!	!LO:LB:g=original	!	!	!	!	!	!	!	!	!
4C/	.	8cc\L	8ee-\L	.	4C/	.	4c\	.	(4g\	.	(4ee-\	-ctum	.	.	4C/	.	.	.
.	.	8dd\	8ff\	.	.	.	.	.	.	.	.	.	.	.	.	.	.	.
8D/L	.	8b-\	8dd\	.	8D/L	.	4B-\	-ctum	4b-\)	.	4dd\)	Do	.	.	8D/L	.	.	.
8E-/J	.	8cc\J	8ee-\J	.	8E-/J	.	.	.	.	.	.	.	.	.	8E-/J	.	.	.
!	!	!	!	!	!LO:LB:g=original	!	!	!	!	!	!	!	!	!	!LO:PB:g=original	!	!	!
=35	=35	=35	=35	=35	=35	=35	=35	=35	=35	=35	=35	=35	=35	=35	=35	=35	=35	=35
4F\	.	12an/L	12cc\L	.	8F\	Do-	8An\	Do-	8f\	Do-	(8cc\	mi-	1ryy	1ryy	4F\	.	.	1ryy
.	.	12b-/	12dd\	.	.	.	.	.	.	.	.	.	.	.	.	.	.	.
.	.	.	.	.	8F\	-mi-	8c\	-mi-	8f\	-mi-	8ee-\)	.	.	.	.	.	.	.
.	.	12cc/J	12ee-\J	.	.	.	.	.	.	.	.	.	.	.	.	.	.	.
4BB-/	.	4b-/	4dd\	.	4BB-/	-num	4B-\	-num	4f\	-num	4dd\	-num	.	.	4BB-/	.	.	.
2r	.	4r	4r	.	2r	.	2r	.	2r	.	2r	.	.	.	2r	.	.	.
.	.	12b-/L	12b-\L	.	.	.	.	.	.	.	.	.	.	.	.	.	.	.
.	.	12cc/	12cc\	.	.	.	.	.	.	.	.	.	.	.	.	.	.	.
.	.	12b-/J	12b-\J	.	.	.	.	.	.	.	.	.	.	.	.	.	.	.
!	!	!LO:LB:g=original	!	!	!	!	!	!	!	!	!	!	!	!	!	!	!	!
=36	=36	=36	=36	=36	=36	=36	=36	=36	=36	=36	=36	=36	=36	=36	=36	=36	=36	=36
2E-\	.	2g/	2ee-\	.	2E-\	et	2B-\	et	2g\	et	2ee-\	et	1ryy	1ryy	2E-\	2g/	2ee-\	1ryy
4A-\	6	8b-/L	8gg\L	.	4A-\	u-	4c\	u-	8b-\L	u-	8gg\L	u-	.	.	4A-\	8b-/L	8gg\L	.
.	.	8a-/	8ff\	.	.	.	.	.	8a-\	.	8ff\	.	.	.	.	8a-/	8ff\	.
4B-\	.	8g/	8ee-\	.	4B-\	.	4B-\	.	8g\	.	8ee-\	.	.	.	4B-\	8g/	8ee-\	.
.	.	8f/J	8dd\J	.	.	.	.	.	8f\J	.	8dd\J	.	.	.	.	8f/J	8dd\J	.
!	!	!	!LO:LB:g=original	!	!	!	!	!	!	!	!LO:LB:g=original	!	!	!	!	!LO:LB:g=original	!	!
=37	=37	=37	=37	=37	=37	=37	=37	=37	=37	=37	=37	=37	=37	=37	=37	=37	=37	=37
2E-\	.	4g/	4ee-\	.	2E-\	-nam	2B-\	-nam	2g\	-nam	2ee-\	-nam	1ryy	1ryy	2E-\	2g/	2ee-\	1ryy
.	.	12g/L	12b-\L	.	.	.	.	.	.	.	.	.	.	.	.	.	.	.
.	.	12a-/	12cc\	.	.	.	.	.	.	.	.	.	.	.	.	.	.	.
.	.	12g/J	12b-\J	.	.	.	.	.	.	.	.	.	.	.	.	.	.	.
4r	.	4g/	4ee-\	.	4r	.	4r	.	4r	.	4r	.	.	.	4r	4r	4r	.
4E-\	.	12b-\L	12gg\L	.	4E-\	San-	4d\	San-	4b-\	San-	4gg\	San-	.	.	4E-\	4b-\	4gg\	.
.	.	12cc\	12aa-\	.	.	.	.	.	.	.	.	.	.	.	.	.	.	.
.	.	12b-\J	12gg\J	.	.	.	.	.	.	.	.	.	.	.	.	.	.	.
!	!	!	!	!	!	!	!	!	!LO:LB:g=original	!	!	!	!	!	!	!	!LO:PB:g=original	!
=38	=38	=38	=38	=38	=38	=38	=38	=38	=38	=38	=38	=38	=38	=38	=38	=38	=38	=38
4E-\	6 4	12cc\L	12aa-\L	.	4E-\	.	4e-\	.	4cc\	.	4aa-\	.	1ryy	1ryy	4E-\	4cc\	4aa-\	1ryy
.	.	12dd\	12bb-\	.	.	.	.	.	.	.	.	.	.	.	.	.	.	.
.	.	12cc\J	12aa-\J	.	.	.	.	.	.	.	.	.	.	.	.	.	.	.
4E-\	5 3	12b-\L	12gg\L	.	4E-\	-ctam	4e-\	-ctam	4b-\	-ctam	4gg\	-ctam	.	.	4E-\	4b-\	4gg\	.
.	.	12cc\	12aa-\	.	.	.	.	.	.	.	.	.	.	.	.	.	.	.
.	.	12b-\J	12gg\J	.	.	.	.	.	.	.	.	.	.	.	.	.	.	.
!	!	!	!	!	!	!	!LO:LB:g=original	!	!	!	!	!	!	!	!	!	!	!
4A-\	8 6	12a-/L	12ff\L	.	4A-\	ec-	4c\	Ec-	4a-\	Ec-	4ff\	Ec-	.	.	4A-\	4a-\	4ff\	.
.	.	12b-/	12gg\	.	.	.	.	.	.	.	.	.	.	.	.	.	.	.
.	.	12a-/J	12ff\J	.	.	.	.	.	.	.	.	.	.	.	.	.	.	.
4An\	7 5	12g/L	12ee-\L	.	4An\	-cle-	4c\	-cle-	4g\	-cle-	4ee-\	-cle-	.	.	4An\	4g\	4ee-\	.
.	.	12a-/	12ff\	.	.	.	.	.	.	.	.	.	.	.	.	.	.	.
.	.	12g/J	12ee-\J	.	.	.	.	.	.	.	.	.	.	.	.	.	.	.
!LO:LB:g=original	!	!	!	!	!	!	!	!	!	!	!	!	!	!	!	!	!	!
=39	=39	=39	=39	=39	=39	=39	=39	=39	=39	=39	=39	=39	=39	=39	=39	=39	=39	=39
4B-\	.	4g/	4ee-\	.	4B-\	-si-	4B-\	-si-	4f\	-si-	4ee-\	-si-	1ryy	1ryy	4B-\	4f/	4ee-\	1ryy
4BB-/	.	4f/	4dd\	.	4BB-/	-am	4B-\	-am	4g\	-am	4dd\	-am	.	.	4BB-/	4g/	4dd\	.
8B-\L	.	2r	2r	.	2r	.	2r	.	2r	.	2r	.	.	.	8B-\L	2r	2r	.
8A-\	.	.	.	.	.	.	.	.	.	.	.	.	.	.	8A-\	.	.	.
8G\	.	.	.	.	.	.	.	.	.	.	.	.	.	.	8G\	.	.	.
8F\J	.	.	.	.	.	.	.	.	.	.	.	.	.	.	8F\J	.	.	.
!	!	!LO:LB:g=original	!	!	!LO:LB:g=original	!	!	!	!	!	!	!	!	!	!	!	!	!
=40	=40	=40	=40	=40	=40	=40	=40	=40	=40	=40	=40	=40	=40	=40	=40	=40	=40	=40
!	!	!	!	!	!	!	!	!	!	!	!	!	!	!	!	!LO:TX:a:t=paus 7	!	!
!	!	!	!	!	!	!	!	!	!	!	!	!	!	!	!	!LO:TX:b:t=7	!	!
4G\	-	8e-/	8dd-X\L	.	1G	Ca-	1B-	Ca-	1e-	Ca-	1dd-X	Ca-	1ryy	1ryy	4G\	00r	00r	1ryy
.	6 5	4e-/	8ee-\	.	.	.	.	.	.	.	.	.	.	.	.	.	.	.
4G\	.	.	8dd-\	.	.	.	.	.	.	.	.	.	.	.	4G\	.	.	.
.	.	4e-/	8ee-\J	.	.	.	.	.	.	.	.	.	.	.	.	.	.	.
4G\	.	.	8dd-\L	.	.	.	.	.	.	.	.	.	.	.	4G\	.	.	.
.	.	4e-/	8ee-\	.	.	.	.	.	.	.	.	.	.	.	.	.	.	.
4G\	.	.	8dd-\	.	.	.	.	.	.	.	.	.	.	.	4G\	.	.	.
.	.	8e-/	8ee-\J	.	.	.	.	.	.	.	.	.	.	.	.	.	.	.
!	!	!	!	!	!	!	!	!	!	!	!	!	!	!	!LO:LB:g=original	!	!	!
=41	=41	=41	=41	=41	=41	=41	=41	=41	=41	=41	=41	=41	=41	=41	=41	=41	=41	=41
4A-\	.	8e-/	8cc\L	.	1A-	-tho-	1A-	-tho-	1e-	-tho-	1cc	-tho-	1ryy	1ryy	4A-\	.	.	1ryy
.	.	4e-/	8aa-X\	.	.	.	.	.	.	.	.	.	.	.	.	.	.	.
4A-\	.	.	8cc\	.	.	.	.	.	.	.	.	.	.	.	4A-\	.	.	.
.	.	4e-/	8aa-\J	.	.	.	.	.	.	.	.	.	.	.	.	.	.	.
4A-\	.	.	8cc\L	.	.	.	.	.	.	.	.	.	.	.	4A-\	.	.	.
.	.	4e-/	8aa-\	.	.	.	.	.	.	.	.	.	.	.	.	.	.	.
4A-\	.	.	8cc\	.	.	.	.	.	.	.	.	.	.	.	4A-\	.	.	.
.	.	8e-/	8aa-\J	.	.	.	.	.	.	.	.	.	.	.	.	.	.	.
!	!	!	!LO:LB:g=original	!	!	!	!	!	!	!	!	!	!	!	!	!	!	!
=42	=42	=42	=42	=42	=42	=42	=42	=42	=42	=42	=42	=42	=42	=42	=42	=42	=42	=42
4An\	6 5	8f/	8ee-\L	.	1An	-li-	1c	-li-	1f	-li-	1ee-	-li-	1ryy	1ryy	4An\	.	.	1ryy
.	.	4f/	8ff\	.	.	.	.	.	.	.	.	.	.	.	.	.	.	.
4A\	.	.	8ee-\	.	.	.	.	.	.	.	.	.	.	.	4A\	.	.	.
.	.	4f/	8ff\J	.	.	.	.	.	.	.	.	.	.	.	.	.	.	.
4A\	.	.	8ee-\L	.	.	.	.	.	.	.	.	.	.	.	4A\	.	.	.
.	.	4f/	8ff\	.	.	.	.	.	.	.	.	.	.	.	.	.	.	.
4A\	.	.	8ee-\	.	.	.	.	.	.	.	.	.	.	.	4A\	.	.	.
.	.	8f/	8ff\J	.	.	.	.	.	.	.	.	.	.	.	.	.	.	.
!	!	!	!	!	!	!	!	!	!	!	!LO:LB:g=original	!	!	!	!	!	!	!
=43	=43	=43	=43	=43	=43	=43	=43	=43	=43	=43	=43	=43	=43	=43	=43	=43	=43	=43
4B-\	.	8f/	8ddn\L	.	1B-	-cam	1B-	-cam	1f	-cam	1ddn	-cam	1ryy	1ryy	4B-\	.	.	1ryy
.	.	4f/	8bb-\	.	.	.	.	.	.	.	.	.	.	.	.	.	.	.
4B-\	.	.	8dd\	.	.	.	.	.	.	.	.	.	.	.	4B-\	.	.	.
.	.	4f/	8bb-\J	.	.	.	.	.	.	.	.	.	.	.	.	.	.	.
4B-\	.	.	8dd\L	.	.	.	.	.	.	.	.	.	.	.	4B-\	.	.	.
.	.	4f/	8bb-\	.	.	.	.	.	.	.	.	.	.	.	.	.	.	.
4B-\	.	.	8dd\	.	.	.	.	.	.	.	.	.	.	.	4B-\	.	.	.
.	.	8f/	8bb-\J	.	.	.	.	.	.	.	.	.	.	.	.	.	.	.
=44	=44	=44	=44	=44	=44	=44	=44	=44	=44	=44	=44	=44	=44	=44	=44	=44	=44	=44
4D\	6 5	8B-/	8a-X/L	.	1D	et	1B-	et a-	2a-\	et	2ff\	et	1ryy	1ryy	4D\	0r	0r	1ryy
.	.	4B-/	8b-/	.	.	.	.	.	.	.	.	.	.	.	.	.	.	.
4D\	.	.	8a-/	.	.	.	.	.	.	.	.	.	.	.	4D\	.	.	.
.	.	4B-/	8b-/J	.	.	.	.	.	.	.	.	.	.	.	.	.	.	.
4D\	.	.	8a-/L	.	.	.	.	.	2a-\	a-	2ff\	a-	.	.	4D\	.	.	.
.	.	4B-/	8b-/	.	.	.	.	.	.	.	.	.	.	.	.	.	.	.
4D\	.	.	8a-/	.	.	.	.	.	.	.	.	.	.	.	4D\	.	.	.
.	.	8B-/	8b-/J	.	.	.	.	.	.	.	.	.	.	.	.	.	.	.
!	!	!LO:LB:g=original	!	!	!	!	!	!	!LO:LB:g=original	!	!	!	!	!	!	!	!	!
=45	=45	=45	=45	=45	=45	=45	=45	=45	=45	=45	=45	=45	=45	=45	=45	=45	=45	=45
4E-\	.	8B-/	8g/L	.	2E-\	a-	2c\	-po-	2g\	-pos-	2ee-\	-pos-	1ryy	1ryy	4E-\	.	.	1ryy
.	.	4B-/	8ee-/	.	.	.	.	.	.	.	.	.	.	.	.	.	.	.
4E-\	.	.	8g/	.	.	.	.	.	.	.	.	.	.	.	4E-\	.	.	.
.	.	4B-/	8ee-/J	.	.	.	.	.	.	.	.	.	.	.	.	.	.	.
!LO:LB:g=original	!	!	!	!	!	!	!	!	!	!	!	!	!	!	!	!	!	!
8E-\L	.	.	8g/L	.	(8E-\L	-po-	2B-\	-sto-	2g\	-to-	2ee-\	-to-	.	.	8E-\L	.	.	.
8F\	.	4B-/	8ee-/	.	8F\)	.	.	.	.	.	.	.	.	.	8F\	.	.	.
8G\	.	.	8g/	.	(8G\	-sto-	.	.	.	.	.	.	.	.	8G\	.	.	.
8A-\J	.	8B-/	8ee-/J	.	8A-\J)	.	.	.	.	.	.	.	.	.	8A-\J	.	.	.
!	!	!	!	!	!	!	!LO:LB:g=original	!	!	!	!	!	!	!	!	!	!	!
=46	=46	=46	=46	=46	=46	=46	=46	=46	=46	=46	=46	=46	=46	=46	=46	=46	=46	=46
4B-\	6 4	4g/	4ee-\	.	4B-\	-li-	4B-\	-li-	4g\	-li-	4ee-\	-li-	1ryy	1ryy	4B-\	1r	1r	1ryy
4BB-/	5 3	4f/	4dd\	.	4BB-/	-cam	4B-\	-cam	4f\	-cam	4dd\	-cam	.	.	4BB-/	.	.	.
2r	.	2r	2r	.	2r	.	2r	.	2r	.	2r	.	.	.	2r	.	.	.
!	!	!	!	!	!	!	!	!	!	!	!	!	!	!	!LO:LB:g=original	!	!	!
=47	=47	=47	=47	=47	=47	=47	=47	=47	=47	=47	=47	=47	=47	=47	=47	=47	=47	=47
!	!	!	!	!	!	!	!LO:TX:a:t=4	!	!	!	!	!	!	!	!	!	!LO:TX:a:t=Solo	!
00r	.	4e-/	4e-/	.	00r	.	00r	.	1b-	et	1gg	et	1ryy	1ryy	00r	1b-	1gg	1ryy
.	.	4e-/	4e-/	.	.	.	.	.	.	.	.	.	.	.	.	.	.	.
.	.	4e-/	4e-/	.	.	.	.	.	.	.	.	.	.	.	.	.	.	.
.	.	4e-/	4e-/	.	.	.	.	.	.	.	.	.	.	.	.	.	.	.
!	!	!	!LO:PB:g=original	!	!	!	!	!	!	!	!	!	!	!	!	!	!	!
=48	=48	=48	=48	=48	=48	=48	=48	=48	=48	=48	=48	=48	=48	=48	=48	=48	=48	=48
.	.	4B-/	4B-/	.	.	.	.	.	1a-	vi-	1ff	vi-	1ryy	1ryy	.	1a-	1ff	1ryy
.	.	4B-/	4B-/	.	.	.	.	.	.	.	.	.	.	.	.	.	.	.
.	.	4B-/	4B-/	.	.	.	.	.	.	.	.	.	.	.	.	.	.	.
.	.	4B-/	4B-/	.	.	.	.	.	.	.	.	.	.	.	.	.	.	.
=49	=49	=49	=49	=49	=49	=49	=49	=49	=49	=49	=49	=49	=49	=49	=49	=49	=49	=49
.	.	4e-/	4e-/	.	.	.	.	.	2g\	-tam	2ee-\	-tam	1ryy	1ryy	.	2g/	2ee-\	1ryy
.	.	4e-/	4e-/	.	.	.	.	.	.	.	.	.	.	.	.	.	.	.
.	.	4g/	4g/	.	.	.	.	.	4r	.	4r	.	.	.	.	4r	4r	.
.	.	4e-/	4e-/	.	.	.	.	.	4g\	ven-	4ee-\	ven-	.	.	.	4g/	4ee-\	.
!	!	!	!	!	!	!	!	!	!	!	!LO:LB:g=original	!	!	!	!	!	!	!
=50	=50	=50	=50	=50	=50	=50	=50	=50	=50	=50	=50	=50	=50	=50	=50	=50	=50	=50
.	.	4B-/	4B-/	.	.	.	.	.	4f\	-tu-	4dd\	-tu-	1ryy	1ryy	.	4f/	4dd\	1ryy
.	.	4B-/	4B-/	.	.	.	.	.	4g\	-ri	4ee-\	-ri	.	.	.	4g/	4ee-\	.
.	.	4B-/	4B-/	.	.	.	.	.	4a-\	sae-	4ff\	sae-	.	.	.	4a-/	4ff\	.
.	.	4B-/	4B-/	.	.	.	.	.	8g\L	-cu-	8ee-\L	-cu-	.	.	.	8g/L	8ee-\L	.
.	.	.	.	.	.	.	.	.	8f\J	.	8dd\J	.	.	.	.	8f/J	8dd\J	.
!	!	!LO:LB:g=original	!	!	!LO:LB:g=original	!	!	!	!LO:LB:g=original	!	!	!	!	!	!	!LO:LB:g=original	!LO:LB:g=original	!
=51	=51	=51	=51	=51	=51	=51	=51	=51	=51	=51	=51	=51	=51	=51	=51	=51	=51	=51
00r	.	4e-/	4e-/	.	1G	ven-	1B-	ven-	2g\	-li	2ee-\	-li	1ryy	1ryy	00r	1gg	1bb-	1ryy
.	.	4e-/	4e-/	.	.	.	.	.	.	.	.	.	.	.	.	.	.	.
.	.	4e-/	4e-/	.	.	.	.	.	2r	.	2r	.	.	.	.	.	.	.
.	.	4e-/	4e-/	.	.	.	.	.	.	.	.	.	.	.	.	.	.	.
=52	=52	=52	=52	=52	=52	=52	=52	=52	=52	=52	=52	=52	=52	=52	=52	=52	=52	=52
.	.	4B-/	4B-/	.	1F	-tu-	1A-	-tu-	00r	.	00r	.	1ryy	1ryy	.	1ff	1aa-	1ryy
.	.	4B-/	4B-/	.	.	.	.	.	.	.	.	.	.	.	.	.	.	.
.	.	4B-/	4B-/	.	.	.	.	.	.	.	.	.	.	.	.	.	.	.
.	.	4B-/	4B-/	.	.	.	.	.	.	.	.	.	.	.	.	.	.	.
=53	=53	=53	=53	=53	=53	=53	=53	=53	=53	=53	=53	=53	=53	=53	=53	=53	=53	=53
.	.	4e-/	4e-/	.	2E-\	-ri	2G/	-ri	.	.	.	.	1ryy	1ryy	.	2ee-\	2gg\	1ryy
.	.	4e-/	4e-/	.	.	.	.	.	.	.	.	.	.	.	.	.	.	.
.	.	4g/	4g/	.	4r	.	4r	.	.	.	.	.	.	.	.	4r	4r	.
.	.	4e-/	4e-/	.	4E-\	sae-	4G/	sae-	.	.	.	.	.	.	.	4ee-\	4gg\	.
=54	=54	=54	=54	=54	=54	=54	=54	=54	=54	=54	=54	=54	=54	=54	=54	=54	=54	=54
.	.	4B-/	4B-/	.	4D\	-cu-	4F/	-cu-	.	.	.	.	1ryy	1ryy	.	4ee-\	4ff\	1ryy
.	.	4B-/	4B-/	.	4E-\	-li	4G/	-li	.	.	.	.	.	.	.	4ee-\	4gg\	.
.	.	4A-/	4A-/	.	4F\	a-	4A-/	a-	.	.	.	.	.	.	.	4ff\	4aa-\	.
.	.	4An/	4An/	.	4E-\	.	4G/	.	.	.	.	.	.	.	.	4ee-\	4gg\	.
=55	=55	=55	=55	=55	=55	=55	=55	=55	=55	=55	=55	=55	=55	=55	=55	=55	=55	=55
1r	.	2B-/	2B-/	.	2D\	-men	2F/	-men	.	.	.	.	1ryy	1ryy	1r	2dd\	2ff\	1ryy
!	!	!	!LO:LB:g=original	!	!	!	!	!	!	!	!	!	!	!	!	!LO:TX:a:t=P:problem=z dwóch taktów zrobiony jeden	!	!
.	.	4r	4r	.	2r	.	2r	.	.	.	.	.	.	.	.	2ryy	2r	.
.	.	12b-\L	12b-\L	.	.	.	.	.	.	.	.	.	.	.	.	.	.	.
.	.	12cc\	12cc\	.	.	.	.	.	.	.	.	.	.	.	.	.	.	.
.	.	12b-\J	12b-\J	.	.	.	.	.	.	.	.	.	.	.	.	.	.	.
!	!	!	!	!	!	!	!LO:LB:g=original	!	!	!	!	!	!	!	!	!	!	!
=56	=56	=56	=56	=56	=56	=56	=56	=56	=56	=56	=56	=56	=56	=56	=56	=56	=56	=56
2r	.	4g/	4ee-\	.	2r	.	2r	.	2r	.	2r	.	1ryy	1ryy	2r	2ryy	2r	1ryy
.	.	12g/L	12ee-\L	.	.	.	.	.	.	.	.	.	.	.	.	.	.	.
.	.	12a-/	12ff\	.	.	.	.	.	.	.	.	.	.	.	.	.	.	.
.	.	12g/J	12ee-\J	.	.	.	.	.	.	.	.	.	.	.	.	.	.	.
!	!	!LO:LB:g=original	!	!	!	!	!	!	!	!	!	!	!	!	!	!	!	!
4r	.	4b-/	4gg\	.	4r	.	4r	.	4r	.	4r	.	.	.	4r	4ryy	4r	.
4E-\	.	8cc/L	8aa-\L	.	4E-\	et	4B-\	et	(4g\	et	(4b-\	ve-	.	.	4E-\	(4gg\	(4bb-\	.
.	.	8b-/J	8gg\J	.	.	.	.	.	.	.	.	.	.	.	.	.	.	.
=57	=57	=57	=57	=57	=57	=57	=57	=57	=57	=57	=57	=57	=57	=57	=57	=57	=57	=57
4BB-/	7	4a-/	4ff\	.	4B-\	vi-	4B-\	vi-	4f\)	vi-	4a-\)	-ntu-	1ryy	1ryy	4BB-/	4ff\)	4aa-\)	1ryy
4E-\	.	4g/	4ee-\	.	4E-\	-tam	4B-\	-tam	4e-\	-tam	4g\	-ri	.	.	4E-\	4ee-\	4gg\	.
2r	.	4r	4r	.	2r	.	2r	.	2r	.	2r	.	.	.	2r	2r	2r	.
.	.	12g/L	12b-\L	.	.	.	.	.	.	.	.	.	.	.	.	.	.	.
.	.	12a-/	12cc\	.	.	.	.	.	.	.	.	.	.	.	.	.	.	.
.	.	12g/J	12b-\J	.	.	.	.	.	.	.	.	.	.	.	.	.	.	.
!	!	!	!	!	!LO:LB:g=original	!	!	!	!	!	!LO:LB:g=original	!	!	!	!	!	!	!
=58	=58	=58	=58	=58	=58	=58	=58	=58	=58	=58	=58	=58	=58	=58	=58	=58	=58	=58
2r	.	4g/	4ee-\	.	2r	.	2r	.	2r	.	2r	.	1ryy	1ryy	2r	2r	2r	1ryy
.	.	12ee-\L	12gg\L	.	.	.	.	.	.	.	.	.	.	.	.	.	.	.
.	.	12ff\	12aa-\	.	.	.	.	.	.	.	.	.	.	.	.	.	.	.
.	.	12ee-\J	12gg\J	.	.	.	.	.	.	.	.	.	.	.	.	.	.	.
4r	.	12gg\L	4bb-\	.	4r	.	4r	.	4r	.	4r	.	.	.	4r	4r	4r	.
.	.	12aa-\	.	.	.	.	.	.	.	.	.	.	.	.	.	.	.	.
.	.	12gg\J	.	.	.	.	.	.	.	.	.	.	.	.	.	.	.	.
4E-\	.	4ff\	8ccc\L	.	4E-\	ven-	4B-\	ven-	(4b-\	ven-	(4gg\	Sae-	.	.	4E-\	4b-\	(4gg\	.
.	.	.	8bb-\J	.	.	.	.	.	.	.	.	.	.	.	.	.	.	.
=59	=59	=59	=59	=59	=59	=59	=59	=59	=59	=59	=59	=59	=59	=59	=59	=59	=59	=59
4BB-/	7	4ff\	4aa-\	.	4B-\	-tu-	4B-\	-tu-	4a-\)	-tu-	4ff\)	-cu-	1ryy	1ryy	4BB-/	4a-/	4ff\)	1ryy
4E-\	.	4ee-\	4gg\	.	4E-\	-ri	4B-\	-ri	4g\	-ri	4ee-\	-li	.	.	4E-\	4g/	4ee-\	.
2r	.	2r	2r	.	2r	.	2r	.	2r	.	2r	.	.	.	2r	2r	2r	.
!	!	!	!LO:LB:g=original	!	!	!	!	!	!LO:LB:g=original	!	!	!	!	!	!	!LO:LB:g=original	!LO:LB:g=original	!
=60	=60	=60	=60	=60	=60	=60	=60	=60	=60	=60	=60	=60	=60	=60	=60	=60	=60	=60
*tremolo	*	*	*	*	*	*	*	*	*	*	*	*	*	*	*	*	*	*
8B-\L	6 4	8g/	8ee-\	.	1B-	sae-	1B-	Sae-	1g	Sae-	1ee-	ven-	1ryy	1ryy	8B-\L	1g	1ee-	1ryy
8B-\	.	4g/	4ee-\	.	.	.	.	.	.	.	.	.	.	.	8B-\	.	.	.
8B-\	.	.	.	.	.	.	.	.	.	.	.	.	.	.	8B-\	.	.	.
8B-\J	.	4g/	4ee-\	.	.	.	.	.	.	.	.	.	.	.	8B-\J	.	.	.
8B-\L	.	.	.	.	.	.	.	.	.	.	.	.	.	.	8B-\L	.	.	.
8B-\	.	4g/	4ee-\	.	.	.	.	.	.	.	.	.	.	.	8B-\	.	.	.
8B-\	.	.	.	.	.	.	.	.	.	.	.	.	.	.	8B-\	.	.	.
8B-\J	.	8g/	8ee-\	.	.	.	.	.	.	.	.	.	.	.	8B-\J	.	.	.
*Xtremolo	*	*	*	*	*	*	*	*	*	*	*	*	*	*	*Xtremolo	*	*	*
!LO:LB:g=original	!	!LO:LB:g=original	!	!	!	!	!	!	!	!	!	!	!	!	!	!	!	!
=61	=61	=61	=61	=61	=61	=61	=61	=61	=61	=61	=61	=61	=61	=61	=61	=61	=61	=61
8A-\L	6_ 4_ 2_	8f/	8dd\	.	2A-\	-cu-	2c\	-cu-	2f\	-cu-	2dd\	-tu-	1ryy	1ryy	8A-\L	1f	2dd\	1ryy
8B-\	.	4f/	4dd\	.	.	.	.	.	.	.	.	.	.	.	8B-\	.	.	.
8A-\	.	.	.	.	.	.	.	.	.	.	.	.	.	.	8A-\	.	.	.
8B-\J	.	4f/	4dd\	.	.	.	.	.	.	.	.	.	.	.	8B-\J	.	.	.
8A-\L	.	.	.	.	2A-\	-li	2c\	-li	2f\	-li	2dd\	-ri	.	.	8A-\L	.	2dd\	.
8B-\	.	4f/	4dd\	.	.	.	.	.	.	.	.	.	.	.	8B-\	.	.	.
8A-\	.	.	.	.	.	.	.	.	.	.	.	.	.	.	8A-\	.	.	.
8B-\J	X X X	8f/	8dd\	.	.	.	.	.	.	.	.	.	.	.	8B-\J	.	.	.
!	!	!	!	!	!	!	!LO:LB:g=original	!	!	!	!	!	!	!	!LO:LB:g=original	!	!	!
=62	=62	=62	=62	=62	=62	=62	=62	=62	=62	=62	=62	=62	=62	=62	=62	=62	=62	=62
4G\	.	4g/	4ee-\	.	4G\	a-	4B-\	a-	4e-\	sae-	4ee-\	sae-	1ryy	1ryy	4G\	4e-/	4ee-\	1ryy
*	*	*	*	*	*	*	*	*	*Xtuplet	*	*Xtuplet	*	*	*	*	*	*	*
!	!	!	!	!	!	!	!	!	!	!	!	!	!	!	!	!LO:TX:a:t=P:problem=mixed beam	!LO:TUP:a:problem=klamra łukowa	!
4A-\	.	4dd\	12cc\L	.	4A-\	.	4B-\	.	12a-\L	-cu-	12cc\L	-cu-	.	.	4A-\	12a-/L	12cc\L	.
.	.	.	12b-\	.	.	.	.	.	12g\	.	12b-\	.	.	.	.	12gg\	12bb-\	.
.	.	.	12a-\J	.	.	.	.	.	12f\J	.	12a-\J	.	.	.	.	12ff\J	12aa-\J	.
!	!	!	!	!	!	!	!	!	!	!	!LO:LB:g=original	!	!	!	!	!	!	!
4B-\	6 4	12a-/L	4g/	.	4B-\	.	2B-\	.	4e-\	-li	4g/	-li	.	.	4B-\	4ee-\	4gg\	.
.	.	12g/	.	.	.	.	.	.	.	.	.	.	.	.	.	.	.	.
.	.	12f/J	.	.	.	.	.	.	.	.	.	.	.	.	.	.	.	.
4BB-/	5 3	8e-/L	4f/	.	4BB-/	.	.	.	4d\	a-	4f/	a-	.	.	4BB-/	4dd\	4ff\	.
.	.	8d/J	.	.	.	.	.	.	.	.	.	.	.	.	.	.	.	.
=63	=63	=63	=63	=63	=63	=63	=63	=63	=63	=63	=63	=63	=63	=63	=63	=63	=63	=63
4E-\	.	4e-/	4e-/	.	2E-\	-men	2B-\	-men	2e-\	-men	2e-/	-men	1ryy	1ryy	4E-\	2ee-\	2ee-\	1ryy
4GG/	.	4G/	4G/	.	.	.	.	.	.	.	.	.	.	.	4GG/	.	.	.
4AA-/	.	4A-/	4A-/	.	2r	.	2r	.	2r	.	2r	.	.	.	4AA-/	2r	2r	.
4BB-/	.	4B-/	4B-/	.	.	.	.	.	.	.	.	.	.	.	4BB-/	.	.	.
=64	=64	=64	=64	=64	=64	=64	=64	=64	=64	=64	=64	=64	=64	=64	=64	=64	=64	=64
!	!	!	!	!	!	!	!	!	!	!	!LO:TX:a:t=P:problem=brak taktu	!	!	!	!	!LO:TX:a:t=P:problem=brak taktu	!LO:TX:a:t=P:problem=brak taktu	!
2EE-/	.	2e-/	2.e-/	.	1r	.	1r	.	1r	.	1ryy	.	1ryy	1ryy	2EE-/	1ryy	1ryy	1ryy
2r	.	2r	.	.	.	.	.	.	.	.	.	.	.	.	2r	.	.	.
.	.	.	4ryy	.	.	.	.	.	.	.	.	.	.	.	.	.	.	.
==	==	==	==	==	==	==	==	==	==	==	==	==	==	==	==	==	==	==
*-	*-	*-	*-	*-	*-	*-	*-	*-	*-	*-	*-	*-	*-	*-	*-	*-	*-	*-
!!!system-decoration: [g1][g2][g3][g4]s13
!!!RDF**kern: | = vertical stroke
!!!ENC: Anastazja Marusiak
!!!END: 2020-06-26
!!!ENC: Marta Lawrence
!!!END: 2020-11-19
!!!YEC: Copyright 2022 Narodowy Instytut Fryderyka Chopina (https://polishscores.org)
!!!YEM: License CC-BY-4.0 (https://creativecommons.org/licenses/by/4.0)
